X: 30
T:Trumpet
R:Hornpipe
C:Captain Pug
M:4/4
L:1/8
K:G
(3DEF| (3GGG G2  (3GGG G2|BGBd gdBG| (3DDD D2  (3DDD D2|FDFA dAFD|
(3GGG G2  (3GGG G2|BGBd g2ag|fafd ege^c|d2d2 d2:|
c| (3ddd d2  (3ddd d2|efgf edcB|cded cBAG|FGAG FDEF|
(3GGG G2  (3=FFF F2| (3EEE E2  (3_EEE E2|D2fe dcBA|G2B2 G2:|
